flaticon/constructions/pipe-6.svg

<svg xmlns="http://www.w3.org/2000/svg" width="32" height="32" viewBox="0 0 24 24">
    <path d="M 23.199219 11.398438 L 21.601562 11.398438 C 21.160156 11.398438 20.800781 11.761719 20.800781 12.199219 L 20.800781 12.601562 L 15.199219 12.601562 L 15.199219 7 L 15.601562 7 C 16.039062 7 16.398438 6.640625 16.398438 6.199219 L 16.398438 4.601562 C 16.398438 4.160156 16.039062 3.800781 15.601562 3.800781 L 8.398438 3.800781 C 7.960938 3.800781 7.601562 4.160156 7.601562 4.601562 L 7.601562 6.199219 C 7.601562 6.640625 7.960938 7 8.398438 7 L 8.800781 7 L 8.800781 12.601562 L 3.199219 12.601562 L 3.199219 12.199219 C 3.199219 11.761719 2.839844 11.398438 2.398438 11.398438 L 0.800781 11.398438 C 0.359375 11.398438 0 11.761719 0 12.199219 L 0 19.398438 C 0 19.839844 0.359375 20.199219 0.800781 20.199219 L 2.398438 20.199219 C 2.839844 20.199219 3.199219 19.839844 3.199219 19.398438 L 3.199219 19 L 20.800781 19 L 20.800781 19.398438 C 20.800781 19.839844 21.160156 20.199219 21.601562 20.199219 L 23.199219 20.199219 C 23.640625 20.199219 24 19.839844 24 19.398438 L 24 12.199219 C 24 11.761719 23.640625 11.398438 23.199219 11.398438 Z M 8.398438 4.601562 L 15.601562 4.601562 L 15.601562 6.199219 L 8.398438 6.199219 Z M 2.398438 19.398438 L 0.800781 19.398438 L 0.800781 12.199219 L 2.398438 12.199219 Z M 3.199219 18.199219 L 3.199219 13.398438 L 9.199219 13.398438 C 9.441406 13.398438 9.601562 13.238281 9.601562 13 L 9.601562 7 L 12.398438 7 L 12.398438 8.199219 C 12.398438 8.441406 12.558594 8.601562 12.800781 8.601562 C 13.039062 8.601562 13.199219 8.441406 13.199219 8.199219 L 13.199219 7 L 14.398438 7 L 14.398438 13 C 14.398438 13.238281 14.558594 13.398438 14.800781 13.398438 L 20.800781 13.398438 L 20.800781 14.199219 L 19.199219 14.199219 C 18.960938 14.199219 18.800781 14.359375 18.800781 14.601562 C 18.800781 14.839844 18.960938 15 19.199219 15 L 20.800781 15 L 20.800781 18.199219 Z M 23.199219 19.398438 L 21.601562 19.398438 L 21.601562 12.199219 L 23.199219 12.199219 Z M 23.199219 19.398438"/>
    <path d="M12.800781 10.199219C13.039062 10.199219 13.199219 10.039062 13.199219 9.800781 13.199219 9.558594 13.039062 9.398438 12.800781 9.398438 12.558594 9.398438 12.398438 9.558594 12.398438 9.800781 12.398438 10.039062 12.601562 10.199219 12.800781 10.199219zM16.800781 14.199219L13.199219 14.199219 13.199219 11.398438C13.199219 11.160156 13.039062 11 12.800781 11 12.558594 11 12.398438 11.160156 12.398438 11.398438L12.398438 14.601562C12.398438 14.839844 12.558594 15 12.800781 15L16.800781 15C17.039062 15 17.199219 14.839844 17.199219 14.601562 17.199219 14.359375 17.039062 14.199219 16.800781 14.199219zM16.800781 14.199219"/>
</svg>

<svg xmlns="http://www.w3.org/2000/svg" width="32" height="32" viewBox="0 0 24 24">
    <path d="M23.2 11.398h-1.598c-.442 0-.801.364-.801.801v.403h-5.602V7h.403c.437 0 .796-.36.796-.8V4.601c0-.442-.359-.801-.796-.801H8.398a.801.801 0 0 0-.796.8V6.2c0 .442.359.801.796.801h.403v5.602H3.199v-.403c0-.437-.36-.8-.8-.8H.8c-.442 0-.801.363-.801.8v7.2c0 .44.36.8.8.8h1.598c.442 0 .801-.36.801-.8V19h17.602v.398c0 .442.36.801.8.801H23.2c.442 0 .801-.36.801-.8v-7.2c0-.437-.36-.8-.8-.8zM8.397 4.602h7.204v1.597H8.398zm-6 14.796H.801V12.2h1.597zM3.2 18.2v-4.8h6c.242 0 .403-.16.403-.399V7h2.796v1.2c0 .241.16.402.403.402.238 0 .398-.16.398-.403V7h1.2v6c0 .238.16.398.402.398h6v.801h-1.602c-.238 0-.398.16-.398.403 0 .238.16.398.398.398h1.602v3.2zm20 1.2h-1.597v-7.2h1.597zm0 0"/>
    <path d="M12.8 10.2c.24 0 .4-.16.4-.4 0-.241-.16-.402-.4-.402-.241 0-.402.16-.402.403 0 .238.204.398.403.398zm0 0M16.8 14.2h-3.6v-2.802c0-.238-.16-.398-.4-.398-.241 0-.402.16-.402.398v3.204c0 .238.16.398.403.398h4c.238 0 .398-.16.398-.398 0-.243-.16-.403-.398-.403zm0 0"/>
</svg>
